X:42
T:The Pink Party Dress
R:reel
C:Paul S. Cranford
O:Cape Breton Island
S:http://www.cranfordpub.com
D:currently unrecorded
B:currently unpublished in book form
Z:psc, (re-formatted,updated 9/17/04)
N:
H:                                                        copyrights Cranford Publications, SOCAN
L:1/8
Q:333
M:C|
K:D
e|fedB A2 de|fbad feeg|fedB ABdf|ebae fdde|
fedB A2 de|fbad feeg|fedB AdFD|EBAd FDD||
||d|FDAd BdAd|FDAd BEEe|dABd AdFD|EBAd FDDd|
FDAd BdAd|FDAd BEEe|fdef dABd|Aaeg fdd|]
